src/assets/images/embedded-flex/icons/cyber.svg

<svg fill="none" height="24" viewBox="0 0 24 24" width="24" xmlns="http://www.w3.org/2000/svg" xmlns:xlink="http://www.w3.org/1999/xlink"><clipPath id="a"><path d="m0 0h24v24h-24z"/></clipPath><g clip-path="url(#a)"><path d="m12 1 8.217 1.826c.457.102.783.507.783.976v9.987c0 2.006-1.003 3.88-2.672 4.992l-6.328 4.219-6.328-4.219c-1.67-1.113-2.672-2.986-2.672-4.991v-9.988c0-.469.326-.874.783-.976zm0 2.049-7 1.555v9.185c0 1.337.668 2.586 1.781 3.328l5.219 3.48 5.219-3.48c1.113-.742 1.781-1.99 1.781-3.327v-9.186l-7-1.554zm4.452 5.173 1.415 1.414-6.364 6.364-4.243-4.243 1.414-1.414 2.828 2.828 4.95-4.95z" fill="#00b393"/></g></svg>

<svg width="24" height="24" viewBox="0 0 24 24" fill="none" xmlns="http://www.w3.org/2000/svg">
<g clip-path="url(#clip0_1252_2148)">
<path d="M12 1L20.217 2.826C20.674 2.928 21 3.333 21 3.802V13.789C21 15.795 19.997 17.669 18.328 18.781L12 23L5.672 18.781C4.002 17.668 3 15.795 3 13.79V3.802C3 3.333 3.326 2.928 3.783 2.826L12 1ZM12 3.049L5 4.604V13.789C5 15.126 5.668 16.375 6.781 17.117L12 20.597L17.219 17.117C18.332 16.375 19 15.127 19 13.79V4.604L12 3.05V3.049ZM16.452 8.222L17.867 9.636L11.503 16L7.26 11.757L8.674 10.343L11.502 13.171L16.452 8.221V8.222Z" fill="#00B393"/>
</g>
<defs>
<clipPath id="clip0_1252_2148">
<rect width="24" height="24" fill="white"/>
</clipPath>
</defs>
</svg>
